X: 1
T: Danny Boy    [A]
C: words: Frederic Weatherly 1913
C: music: trad. Irish air
R: air
Z: 2019 John Chambers <jc:trillian.mit.edu>
M: C
L: 1/8
K: A
% - - - - - - - - - -
[V:1 clef=treble middle=B]
[V:2 clef=bass   middle=D]
% %scale 0.65
%%continueall 1
% - - - - - - - - - -
[V:1] GAB | c3B cfec | (BA)F2 zAcd |
w: Oh Dan-ny boy, the pipes, the pipes are call-*ing, from glen to
w: But if you come when all the flow'rs are dy-*ing, and I am
[V:2] EFG | A3G AdcA | GF F2 zFAB |
% - - - - - - - - - -
[V:1] e3f ecAc | B4 zGAB | c3B cfec |
w: glen, and down the moun-tain side. The sum-mer's gone, and all the ro-ses
w: dead, as dead I well may be, you'll come and find the place where I am
[V:2] c3d cAGA | G4 zEFG | A3G AdcA |
% - - - - - - - - - -
[V:1] (BA)F2 zGAB | c3d cBAG | A4 zefg |
w: fall-*ing, 'tis you, 'tis you must go and I must bide. But come ye
w: ly-*ing, and kneel and say an A-ve there for me. And I will
[V:2] GF F2 zEFG | A3B AGFG | A4 zcdd |
% - - - - - - - - - -
[V:1] a3g gfef | (ec)A2 zefg |
w: back, when sum-mer's in the mea-*dow, or when the
w: hear, though soft you tread a-bove* me, and oh my
[V:2] d3e edcd | (cA)A2 zcdd |
% - - - - - - - - - -
[V:1] a3g gfec | B4 zeee | c'3b bafa |
w: val-ley's hushed and white with snow, 'tis I'll be here in sun-shine or in
w: grave will warm-er, swee-ter be, if you shall kneel and tell me that you
[V:2] e3e edcA | (G2D2 C2)DG | G3B BBAB |
% - - - - - - - - - -
[V:1] ecA2 zGAB | cfec BAFG | A3z z :|
w: sha-*dow, oh Dan-ny boy, oh Dan-ny boy, I love you so.
w: love* me, and I can sleep in peace un-til you come to me.
[V:2]BB F2 zEFG | AdcA GFFE | A3z z :|
% - - - - - - - - - -

%%sep 1 1 500

